source/bug.svg

<svg width="24" height="24" viewBox="0 0 24 24" fill="none" xmlns="http://www.w3.org/2000/svg">
<path fill-rule="evenodd" clip-rule="evenodd" d="M4.25 7C4.25 6.58579 4.58579 6.25 5 6.25H19C19.4142 6.25 19.75 6.58579 19.75 7V14C19.75 14.9831 19.4793 16.8881 18.3777 18.5728C17.2449 20.3051 15.2635 21.75 12 21.75C8.73407 21.75 6.75319 20.2926 5.62167 18.5565C4.52117 16.868 4.25 14.9639 4.25 14V7ZM5.75 7.75V14C5.75 14.7614 5.97883 16.3573 6.87833 17.7375C7.74681 19.07 9.26593 20.25 12 20.25C14.7365 20.25 16.2551 19.078 17.1223 17.7518C18.0207 16.3781 18.25 14.7831 18.25 14V7.75H5.75Z" fill="#1C1B1F"/>
<path fill-rule="evenodd" clip-rule="evenodd" d="M1.46967 3.46967C1.76256 3.17678 2.23744 3.17678 2.53033 3.46967L5.53033 6.46967C5.82322 6.76256 5.82322 7.23744 5.53033 7.53033C5.23744 7.82322 4.76256 7.82322 4.46967 7.53033L1.46967 4.53033C1.17678 4.23744 1.17678 3.76256 1.46967 3.46967Z" fill="#1C1B1F"/>
<path fill-rule="evenodd" clip-rule="evenodd" d="M22.5303 3.46967C22.8232 3.76256 22.8232 4.23744 22.5303 4.53033L19.5303 7.53033C19.2374 7.82322 18.7626 7.82322 18.4697 7.53033C18.1768 7.23744 18.1768 6.76256 18.4697 6.46967L21.4697 3.46967C21.7626 3.17678 22.2374 3.17678 22.5303 3.46967Z" fill="#1C1B1F"/>
<path fill-rule="evenodd" clip-rule="evenodd" d="M1.25 13.5C1.25 13.0858 1.58579 12.75 2 12.75H5C5.41421 12.75 5.75 13.0858 5.75 13.5C5.75 13.9142 5.41421 14.25 5 14.25H2C1.58579 14.25 1.25 13.9142 1.25 13.5Z" fill="#1C1B1F"/>
<path fill-rule="evenodd" clip-rule="evenodd" d="M18.25 13.5C18.25 13.0858 18.5858 12.75 19 12.75H22C22.4142 12.75 22.75 13.0858 22.75 13.5C22.75 13.9142 22.4142 14.25 22 14.25H19C18.5858 14.25 18.25 13.9142 18.25 13.5Z" fill="#1C1B1F"/>
<path fill-rule="evenodd" clip-rule="evenodd" d="M7.03033 18.4697C7.32322 18.7626 7.32322 19.2374 7.03033 19.5303L4.03033 22.5303C3.73744 22.8232 3.26256 22.8232 2.96967 22.5303C2.67678 22.2374 2.67678 21.7626 2.96967 21.4697L5.96967 18.4697C6.26256 18.1768 6.73744 18.1768 7.03033 18.4697Z" fill="#1C1B1F"/>
<path fill-rule="evenodd" clip-rule="evenodd" d="M16.9697 18.4697C17.2626 18.1768 17.7374 18.1768 18.0303 18.4697L21.0303 21.4697C21.3232 21.7626 21.3232 22.2374 21.0303 22.5303C20.7374 22.8232 20.2626 22.8232 19.9697 22.5303L16.9697 19.5303C16.6768 19.2374 16.6768 18.7626 16.9697 18.4697Z" fill="#1C1B1F"/>
<path fill-rule="evenodd" clip-rule="evenodd" d="M12 6.25C12.4142 6.25 12.75 6.58579 12.75 7V21C12.75 21.4142 12.4142 21.75 12 21.75C11.5858 21.75 11.25 21.4142 11.25 21V7C11.25 6.58579 11.5858 6.25 12 6.25Z" fill="#1C1B1F"/>
<path fill-rule="evenodd" clip-rule="evenodd" d="M17.1403 19.0235C17.4072 19.3403 17.3669 19.8134 17.0501 20.0804C15.8608 21.0826 14.2168 21.7499 11.9997 21.7499C9.8007 21.7499 8.16546 21.0887 6.97865 20.0956C6.66099 19.8297 6.61898 19.3567 6.88481 19.0391C7.15063 18.7214 7.62365 18.6794 7.94131 18.9452C8.83648 19.6943 10.1233 20.2499 11.9997 20.2499C13.8939 20.2499 15.1874 19.6886 16.0835 18.9334C16.4002 18.6664 16.8734 18.7068 17.1403 19.0235Z" fill="#1C1B1F"/>
<path fill-rule="evenodd" clip-rule="evenodd" d="M7.25 6.16667C7.25 3.48042 9.34809 1.25 12 1.25C14.6519 1.25 16.75 3.48042 16.75 6.16667V7C16.75 7.41421 16.4142 7.75 16 7.75H8C7.58579 7.75 7.25 7.41421 7.25 7V6.16667ZM12 2.75C10.2336 2.75 8.75 4.25054 8.75 6.16667V6.25H15.25V6.16667C15.25 4.25054 13.7664 2.75 12 2.75Z" fill="#1C1B1F"/>
</svg>

<svg xmlns="http://www.w3.org/2000/svg" width="24" height="24" fill="none" viewBox="0 0 24 24">
  <path fill="#1C1B1F" fill-rule="evenodd" d="M4.25 7A.75.75 0 0 1 5 6.25h14a.75.75 0 0 1 .75.75v7c0 .983-.27 2.888-1.372 4.573-1.133 1.732-3.114 3.177-6.378 3.177-3.266 0-5.247-1.457-6.378-3.194C4.522 16.869 4.25 14.964 4.25 14V7Zm1.5.75V14c0 .761.229 2.357 1.128 3.738C7.747 19.07 9.266 20.25 12 20.25c2.736 0 4.255-1.172 5.122-2.498.899-1.374 1.128-2.969 1.128-3.752V7.75H5.75Z" clip-rule="evenodd"/>
  <path fill="#1C1B1F" fill-rule="evenodd" d="M1.47 3.47a.75.75 0 0 1 1.06 0l3 3a.75.75 0 0 1-1.06 1.06l-3-3a.75.75 0 0 1 0-1.06Zm21.06 0a.75.75 0 0 1 0 1.06l-3 3a.75.75 0 1 1-1.06-1.06l3-3a.75.75 0 0 1 1.06 0ZM1.25 13.5a.75.75 0 0 1 .75-.75h3a.75.75 0 0 1 0 1.5H2a.75.75 0 0 1-.75-.75Zm17 0a.75.75 0 0 1 .75-.75h3a.75.75 0 0 1 0 1.5h-3a.75.75 0 0 1-.75-.75ZM7.03 18.47a.75.75 0 0 1 0 1.06l-3 3a.75.75 0 0 1-1.06-1.06l3-3a.75.75 0 0 1 1.06 0Zm9.94 0a.75.75 0 0 1 1.06 0l3 3a.75.75 0 1 1-1.06 1.06l-3-3a.75.75 0 0 1 0-1.06ZM12 6.25a.75.75 0 0 1 .75.75v14a.75.75 0 0 1-1.5 0V7a.75.75 0 0 1 .75-.75Z" clip-rule="evenodd"/>
  <path fill="#1C1B1F" fill-rule="evenodd" d="M17.14 19.023a.75.75 0 0 1-.09 1.057c-1.19 1.003-2.833 1.67-5.05 1.67-2.2 0-3.835-.661-5.021-1.654a.75.75 0 0 1 .962-1.15c.895.748 2.182 1.304 4.059 1.304 1.894 0 3.187-.561 4.084-1.317a.75.75 0 0 1 1.056.09ZM7.25 6.167C7.25 3.48 9.348 1.25 12 1.25s4.75 2.23 4.75 4.917V7a.75.75 0 0 1-.75.75H8A.75.75 0 0 1 7.25 7v-.833ZM12 2.75c-1.766 0-3.25 1.5-3.25 3.417v.083h6.5v-.083c0-1.916-1.484-3.417-3.25-3.417Z" clip-rule="evenodd"/>
</svg>
